src/assets/image/Linkedin.svg

<svg width="30" height="30" viewBox="0 0 30 30" fill="none" xmlns="http://www.w3.org/2000/svg">
<path d="M8.25039 26.8311H3.17993V9.92955H8.25039V26.8311ZM26.8421 26.8311H21.7716V17.8023C21.7716 15.4496 20.9333 14.2783 19.2719 14.2783C17.9552 14.2783 17.1203 14.9341 16.7011 16.2473V26.8311H11.6307C11.6307 26.8311 11.6983 11.6197 11.6307 9.92955H15.633L15.9423 13.3099H16.0471C17.0865 11.6197 18.7479 10.4738 21.0262 10.4738C22.7587 10.4738 24.1598 10.9555 25.2297 12.1656C26.3063 13.3775 26.8421 15.0034 26.8421 17.2868V26.8311Z" fill="#828282"/>
<path d="M7.56763 3.91149C8.5907 4.90156 8.5907 6.50677 7.56763 7.49684C6.54456 8.48691 4.88583 8.48691 3.86276 7.49684C2.83969 6.50677 2.83969 4.90156 3.86276 3.91149C4.88583 2.92142 6.54456 2.92142 7.56763 3.91149Z" fill="#828282"/>
</svg>

<svg xmlns="http://www.w3.org/2000/svg" width="30" height="30" fill="#828282"><path d="M8.25 26.83H3.18V9.93h5.07v16.9zm18.592 0h-5.07V17.8c0-2.353-.838-3.524-2.5-3.524-1.317 0-2.152.656-2.57 1.97V26.83h-5.07V9.93h4.002l.3 3.38h.105c1.04-1.7 2.7-2.836 4.98-2.836 1.733 0 3.134.482 4.204 1.692 1.077 1.212 1.612 2.838 1.612 5.12v9.544zM7.568 3.9c1.023 1 1.023 2.595 0 3.585s-2.682 1-3.705 0S2.84 4.9 3.863 3.9s2.682-1 3.705 0z"/></svg>
